dist/img/svg/competency-8.svg

<svg width="81" height="81" viewBox="0 0 81 81" fill="none" xmlns="http://www.w3.org/2000/svg">
<path d="M7 16.2759H54V13C54 10.2386 51.7614 8 49 8H11C8.23858 8 6 10.2386 6 13V16.2759V29.5172V46.0345C6 48.7959 8.23858 51.0345 11 51.0345H49C51.7614 51.0345 54 48.796 54 46.0346C54 43.5502 54 41.0051 54 39.5" stroke="#F14D34" stroke-width="2.5"/>
<path d="M26 51.5172V68.0345C26 70.7959 28.2386 73.0345 31 73.0345H69C71.7614 73.0345 74 70.7959 74 68.0345V38.2759M74 38.2759V35C74 32.2386 71.7614 30 69 30H62M74 38.2759H62" stroke="#F14D34" stroke-width="2.5"/>
<path d="M55 20L43.5 23.5294M55 35L44.0535 32.4804C43.6857 32.3957 43.3094 32.3529 42.932 32.3529H39.4118C36.9752 32.3529 35 30.3777 35 27.9412V27.9412C35 25.5046 36.9752 23.5294 39.4118 23.5294H43.5M43.5 23.5294V27.9412" stroke="#050C33" stroke-width="2.5"/>
<rect x="54" y="16" width="7" height="23" rx="3.5" stroke="#050C33" stroke-width="2.5"/>
<path d="M44 32V40C44 41.1046 43.1046 42 42 42V42C40.8954 42 40 41.1046 40 40V32" stroke="#050C33" stroke-width="2.5"/>
<path d="M10.4573 12.5517H12.5144" stroke="#F14D34" stroke-width="2.5"/>
<path d="M14.5713 12.5517H16.6284" stroke="#F14D34" stroke-width="2.5"/>
<path d="M18.6858 12.5517H20.7429" stroke="#F14D34" stroke-width="2.5"/>
<path d="M13 36L28 36" stroke="#F14D34" stroke-width="2.5"/>
<path d="M13 40L21 40" stroke="#F14D34" stroke-width="2.5"/>
<rect x="14.25" y="23.25" width="12.5" height="8.5" rx="3.75" stroke="#F14D34" stroke-width="2.5"/>
<circle cx="59.8995" cy="58.8995" r="5.75" transform="rotate(-45 59.8995 58.8995)" stroke="#F14D34" stroke-width="2.5"/>
<path d="M64.1426 63.1421L68.0317 67.0312" stroke="#F14D34" stroke-width="2.5"/>
</svg>

<svg width="81" height="81" fill="none" xmlns="http://www.w3.org/2000/svg"><path d="M7 16.276h47V13a5 5 0 00-5-5H11a5 5 0 00-5 5v33.035a5 5 0 005 5h38a5 5 0 005-5V39.5" stroke="#F14D34" stroke-width="2.5"/><path d="M26 51.517v16.517a5 5 0 005 5h38a5 5 0 005-5V38.276m0 0V35a5 5 0 00-5-5h-7m12 8.276H62" stroke="#F14D34" stroke-width="2.5"/><path d="M55 20l-11.5 3.53M55 35l-10.947-2.52a4.998 4.998 0 00-1.121-.127h-3.52A4.412 4.412 0 0135 27.94v0a4.412 4.412 0 014.412-4.412H43.5m0 0v4.412" stroke="#050C33" stroke-width="2.5"/><rect x="54" y="16" width="7" height="23" rx="3.5" stroke="#050C33" stroke-width="2.5"/><path d="M44 32v8a2 2 0 01-2 2v0a2 2 0 01-2-2v-8" stroke="#050C33" stroke-width="2.5"/><path d="M10.457 12.552h2.057m2.057 0h2.057m2.058 0h2.057M13 36h15m-15 4h8" stroke="#F14D34" stroke-width="2.5"/><rect x="14.25" y="23.25" width="12.5" height="8.5" rx="3.75" stroke="#F14D34" stroke-width="2.5"/><circle cx="59.9" cy="58.9" r="5.75" transform="rotate(-45 59.9 58.9)" stroke="#F14D34" stroke-width="2.5"/><path d="M64.143 63.142l3.889 3.89" stroke="#F14D34" stroke-width="2.5"/></svg>
